X:1
T:Title
%%score { ( 1 4 ) | ( 2 3 ) }
L:1/8
M:3/4
K:F
V:1 treble nm="Grand Piano"
V:4 treble 
V:2 bass 
V:3 bass 
V:1
 z2 z2[Q:1/4=110] c2 | c2 A2 G2 | F2 G2 A2 | z2 z2 E2 | F4 [EG]2 | A4 c2 | e4 d2 | c6- | %8
[M:2/4] c4 |[M:1/4] A2 |[M:3/4] [FA]2 [EG]2 [FA]2 | [GB]4 G2 | c6 | A4 F2 | F2- [EFc]2 [DFB]2 | %15
 [FA]4 z2 | [A,F]6- |[M:2/4] [A,F]4 |[M:1/4] [Fc]2 |[M:3/4] [Be]4 [Bc]2 | [Af]4 [Ac]2 | %21
 [GB]2 A2 G2 | c4 A2 | z2 G2 A2 | c2 B2 [DG]2 | %25
 [FA]4 z2[Q:1/4=108][Q:1/4=107][Q:1/4=105][Q:1/4=104][Q:1/4=102][Q:1/4=100][Q:1/4=99][Q:1/4=97][Q:1/4=95][Q:1/4=94][Q:1/4=92][Q:1/4=91][Q:1/4=89][Q:1/4=87][Q:1/4=86][Q:1/4=84] | %26
 [A,F]6 |] %27
V:2
 z2 z2 [F,A,F]2 | [F,F]2- [F,CF]2 [F,B,C]2 | [F,C]2- [F,B,C]2 [F,C]2 | [C,B,]6 | [F,A,C]4 [C,C]2 | %5
 [F,CF]4 [F,A,F]2 | [B,G]4 [B,F]2 | [A,CF]4[K:bass] [G,B,]2 |[M:2/4] [F,A,]4 |[M:1/4] [F,CF]2 | %10
[M:3/4] [C,C]4 [C,C]2 | [E,C]4 [E,B,]2 | [F,A,F]6 | [F,CF]4 [F,A,]2 | F,2 A,,2 B,,2 | z2 =B,2 C,2 | %16
 F,6- |[M:2/4] F,4 |[M:1/4] [F,A,]2 |[M:3/4] [C,G,]4 [E,C]2 | [F,C]4 [F,C]2 | %21
 z2[K:treble] F2 [B,CE]2 | [A,CF]4 [F,CF]2 | [A,C]2 [B,D]2 [A,D^F]2 | [G,DG]4[K:bass] B,,2 | %25
 z2 =B,2 C,2 | F,6 |] %27
V:3
 x6 | A,2 z2 z2 | A,2 z2 z2 | x6 | x6 | x6 | x6 | x4[K:bass] x2 |[M:2/4] x4 |[M:1/4] x2 | %10
[M:3/4] x6 | x6 | x6 | x6 | x6 | C,4 z2 | x6 |[M:2/4] x4 |[M:1/4] x2 |[M:3/4] x6 | x6 | %21
 [C,C]4[K:treble] z2 | x6 | x6 | x4[K:bass] x2 | C,4 z2 | x6 |] %27
V:4
 x6 | x6 | x6 | D6 | x6 | x6 | x6 | z2 z2 E2 |[M:2/4] F4 |[M:1/4] x2 |[M:3/4] x6 | x6 | x6 | x6 | %14
 [CA]2 z2 z2 | C2 z2 [B,EG]2 | x6 |[M:2/4] x4 |[M:1/4] x2 |[M:3/4] x6 | x6 | x6 | x6 | F4 z2 | x6 | %25
 C2 z2 [B,EG]2 | x6 |] %27

